outputs/icons/audio_video/pause_round.svg

<svg xmlns="http://www.w3.org/2000/svg" width="1200" height="1200" fill="none"><g clip-path="url(#a)"><path fill="#000" d="M400 950c55 0 100-45 100-100V350c0-55-45-100-100-100s-100 45-100 100v500c0 55 45 100 100 100m300-600v500c0 55 45 100 100 100s100-45 100-100V350c0-55-45-100-100-100s-100 45-100 100"/></g><defs><clipPath id="a"><path fill="#fff" d="M0 0h1200v1200H0z"/></clipPath></defs></svg>

<svg width="1200" height="1200" viewBox="0 0 1200 1200" fill="none" xmlns="http://www.w3.org/2000/svg"><g clip-path="url(#clip0_231_5129)"><path d="M400 950C455 950 500 905 500 850V350C500 295 455 250 400 250C345 250 300 295 300 350V850C300 905 345 950 400 950ZM700 350V850C700 905 745 950 800 950C855 950 900 905 900 850V350C900 295 855 250 800 250C745 250 700 295 700 350Z" fill="black"/></g><defs><clipPath id="clip0_231_5129"><path width="24" fill="white" d="M0 0H1200V1200H0V0z"/></clipPath></defs></svg>
